**kern	**kern	**dynam
*part1	*part1	*part1
*staff2	*staff1	*
*I"Piano	*	*
*clefF4	*clefG2	*
*k[b-e-a-d-]	*k[b-e-a-d-]	*
=1	=1	=1
!	!LO:TX:a:i:t=a tempo	!
4.ryy	(8AA-L<	pp <
.	8E-<	.
.	8c	.
4.ryy	8f	[[
.	8e-	.
.	8fJ	.
=	=	=
2.r	8e-L	>
.	8fJ	.
.	4a-') 4cc	.
.	4a-' 4cc	.
=	=	=
(2.c	8r	.
.	(8e-	.
.	4a-') 4ee-	.
.	4a-' 4ee-	.
=	=	=
2.c-X) 2.dn	8r	]]
.	(8f-X	.
.	4a-') 4ff-X	.
.	4a-' 4ff-	.
=	=	=
8A-' 8e- 8a-	8cc' 8aa- 8ccc	pp
8r	8r	.
4r	4r	.
4r	4r	.
=	=	=
(2.AA- 2.E-	8r	ppp
.	(8c	.
.	4a-') 4cc	.
.	4a-' 4cc	.
=	=	=
4AAA-')	2.r;	p
4r	.	.
4r;	.	.
==	==	==
*-	*-	*-
!!!system-decoration: {(s1,s2)}
!!!RDF**kern: < = below
